icon-themes/breeze_svg/sd/res/effectpath_16.svg

<svg viewBox="0 0 16 16" xmlns="http://www.w3.org/2000/svg"><path d="m3.5 2c-.82843 0-1.5.67157-1.5 1.5 0 .65584.41359 1.20241 1 1.40625v.09375 1 5h-1v3h3v-1-1-1h-1v-5-1-.09375c.43209-.1502.75605-.47416.90625-.90625h.09375 1 5v1h1 1 1v-3h-3v1h-5-1-.09375c-.20384-.58641-.75041-1-1.40625-1zm0 1c.27614 0 .5.22386.5.5s-.22386.5-.5.5-.5-.22386-.5-.5.22386-.5.5-.5zm8.5 0h1v1h-1zm-2.5 2-1.5 3-3 .75 2.25 2.25-.75 3 3-1.5 3 1.5-.75-3 2.25-2.25-3-.75zm-6.5 7h1v1h-1z" fill="#4d4d4d"/></svg>

<svg xmlns="http://www.w3.org/2000/svg" viewBox="0 0 16 16">
 <path 
     style="fill:#4d4d4d" 
     d="M 3.5 2 C 2.67157 2 2 2.67157 2 3.5 C 2 4.15584 2.41359 4.70241 3 4.90625 L 3 5 L 3 6 L 3 11 L 2 11 L 2 14 L 5 14 L 5 13 L 5 12 L 5 11 L 4 11 L 4 6 L 4 5 L 4 4.90625 C 4.43209 4.75605 4.75605 4.43209 4.90625 4 L 5 4 L 6 4 L 11 4 L 11 5 L 12 5 L 13 5 L 14 5 L 14 2 L 11 2 L 11 3 L 6 3 L 5 3 L 4.90625 3 C 4.70241 2.41359 4.15584 2 3.5 2 z M 3.5 3 C 3.77614 3 4 3.22386 4 3.5 C 4 3.77614 3.77614 4 3.5 4 C 3.22386 4 3 3.77614 3 3.5 C 3 3.22386 3.22386 3 3.5 3 z M 12 3 L 13 3 L 13 4 L 12 4 L 12 3 z M 9.5 5 L 8 8 L 5 8.75 L 7.25 11 L 6.5 14 L 9.5 12.5 L 12.5 14 L 11.75 11 L 14 8.75 L 11 8 L 9.5 5 z M 3 12 L 4 12 L 4 13 L 3 13 L 3 12 z "
     />
</svg>
